src/img/design-logo.svg

<svg width="109" height="110" viewBox="0 0 109 110" fill="none" xmlns="http://www.w3.org/2000/svg">
<g clip-path="url(#clip0)">
<path d="M72.2667 29.6996V29.6867L72.2659 29.6872L69.8663 28.2482L72.2654 26.8097L72.2577 10.0988C65.7225 9.38816 60.1332 9.03518 54.5928 9.0369C49.04 9.03819 43.4003 9.3946 36.7745 10.1023V15.6704C39.2359 15.4329 41.669 15.2414 44.0849 15.098C52.3046 14.6093 60.2612 14.6742 68.3825 15.3501V22.5693C60.3334 21.8693 52.5237 21.7878 44.5064 22.2644C37.2472 22.6955 29.7991 23.4844 21.7736 24.7868V64.827C30.1489 66.1143 36.9236 66.8731 43.8855 67.2445C51.6535 67.6585 59.2763 67.5575 68.3288 67.0646V74.2503C59.1981 74.7394 51.4511 74.8334 43.5202 74.4109C41.2092 74.2877 38.8853 74.1202 36.5089 73.9063V79.6896C43.2469 80.5961 48.9656 81.047 54.5816 81.0453C60.165 81.0435 65.775 80.5922 72.3153 79.6961V58.1153L29.4787 36.1618L29.5294 26.6654C31.9621 26.3421 34.3513 26.0612 36.7066 25.8242L36.6782 31.9634L79.5148 53.9174V65.937C81.0403 65.7338 82.6195 65.5002 84.2495 65.2392C85.2043 65.0859 86.1939 64.918 87.2171 64.7355V24.8602C85.9516 24.6575 84.6061 24.4591 83.2615 24.2753C81.9926 24.1018 80.6922 23.9391 79.4353 23.7961L79.44 33.7369L72.2667 29.6996ZM56.9567 88.1863L54.5928 90.0761L52.2311 88.1885C46.0783 88.0669 39.8109 87.4602 32.3888 86.3643L29.3094 85.91V73.1356C25.5438 72.6727 21.5757 72.0985 17.2755 71.402L14.3534 70.9707V46.1839L12.0214 44.7753L14.3633 43.312L14.3745 43.3189L14.3534 18.8549L17.5716 18.2992C21.6939 17.5911 25.6809 16.984 29.5745 16.4833V3.69807L32.7665 3.32276C40.027 2.46953 46.1712 1.99074 52.2281 1.89069L54.5928 0L56.9558 1.8894C63.0097 1.98644 69.1023 2.46266 76.2636 3.32276L79.4259 3.70279L79.4323 16.5653C80.9075 16.7315 82.5448 16.9367 84.2177 17.1652C86.8286 17.522 89.4229 17.9269 91.4778 18.3134L94.4171 18.8665V43.3363L96.8166 44.7753L94.4171 46.2142V70.6841L91.492 71.2466C89.5694 71.6163 87.533 71.9749 85.3745 72.321C83.4897 72.6233 81.5379 72.9037 79.5148 73.1609V85.9023L76.4496 86.3643C69.2411 87.4512 63.0896 88.0601 56.9567 88.1863ZM36.5575 58.2239L38.9553 59.6616L36.5575 61.0992V63.9179C34.2267 63.7015 31.8396 63.4382 29.358 63.1252V54.1527L36.5575 58.2222V58.2239Z" fill="#A7B9BE" fill-opacity="0.5"/>
</g>
<path d="M6.99506 105.222C6.99506 106.001 6.85048 106.69 6.5613 107.29C6.27213 107.89 5.86033 108.353 5.32591 108.678C4.79515 109 4.18935 109.161 3.50851 109.161C2.82767 109.161 2.22371 109.006 1.6966 108.695C1.1695 108.38 0.757707 107.932 0.461213 107.351C0.168379 106.769 0.0146417 106.101 0 105.348V104.898C0 104.115 0.142756 103.426 0.428269 102.83C0.717442 102.23 1.12924 101.767 1.66366 101.441C2.20174 101.116 2.81303 100.953 3.49753 100.953C4.17471 100.953 4.77868 101.114 5.30944 101.436C5.8402 101.758 6.252 102.217 6.54483 102.813C6.84133 103.406 6.9914 104.086 6.99506 104.854V105.222ZM5.03491 104.887C5.03491 104.093 4.9013 103.492 4.63409 103.082C4.37054 102.669 3.99169 102.462 3.49753 102.462C2.53118 102.462 2.02055 103.186 1.96565 104.635L1.96016 105.222C1.96016 106.005 2.0901 106.606 2.34999 107.027C2.60988 107.447 2.99605 107.658 3.50851 107.658C3.99535 107.658 4.37054 107.451 4.63409 107.038C4.89764 106.624 5.03125 106.03 5.03491 105.255V104.887Z" fill="#A7B9BE" fill-opacity="0.5"/>
<path d="M13.7925 102.55H11.3931V109.051H9.46585V102.55H7.11037V101.063H13.7925V102.55Z" fill="#A7B9BE" fill-opacity="0.5"/>
<path d="M21.2927 109.051H19.3764V105.716H16.5378V109.051H14.6106V101.063H16.5378V104.234H19.3764V101.063H21.2927V109.051Z" fill="#A7B9BE" fill-opacity="0.5"/>
<path d="M27.4751 105.666H24.4443V107.57H28.0242V109.051H22.5171V101.063H28.0352V102.55H24.4443V104.234H27.4751V105.666Z" fill="#A7B9BE" fill-opacity="0.5"/>
<path d="M31.7798 106.231H30.7366V109.051H28.8093V101.063H31.9555C32.9035 101.063 33.6448 101.273 34.1792 101.694C34.7136 102.114 34.9808 102.709 34.9808 103.477C34.9808 104.033 34.8673 104.494 34.6404 104.86C34.4171 105.225 34.0657 105.522 33.5862 105.748L35.2553 108.969V109.051H33.1909L31.7798 106.231ZM30.7366 104.744H31.9555C32.3215 104.744 32.596 104.649 32.7791 104.459C32.9657 104.265 33.0591 103.996 33.0591 103.653C33.0591 103.309 32.9657 103.04 32.7791 102.846C32.5924 102.649 32.3179 102.55 31.9555 102.55H30.7366V104.744Z" fill="#A7B9BE" fill-opacity="0.5"/>
<path d="M40.2683 106.928C40.2683 106.646 40.1676 106.427 39.9663 106.27C39.7686 106.112 39.4191 105.95 38.9176 105.781C38.4161 105.613 38.0061 105.45 37.6877 105.293C36.6518 104.785 36.1338 104.086 36.1338 103.197C36.1338 102.755 36.262 102.365 36.5182 102.029C36.7781 101.688 37.1441 101.425 37.6163 101.238C38.0885 101.048 38.6193 100.953 39.2086 100.953C39.7833 100.953 40.2976 101.056 40.7515 101.26C41.209 101.465 41.5641 101.758 41.8166 102.138C42.0692 102.515 42.1955 102.947 42.1955 103.433H40.2738C40.2738 103.108 40.1731 102.855 39.9718 102.676C39.7741 102.497 39.5051 102.407 39.1647 102.407C38.8206 102.407 38.5479 102.484 38.3466 102.638C38.1489 102.787 38.0501 102.98 38.0501 103.214C38.0501 103.418 38.1599 103.605 38.3795 103.773C38.5991 103.938 38.9853 104.11 39.538 104.289C40.0908 104.465 40.5446 104.655 40.8997 104.86C41.7636 105.357 42.1955 106.043 42.1955 106.917C42.1955 107.616 41.9319 108.164 41.4048 108.563C40.8777 108.962 40.1548 109.161 39.236 109.161C38.5882 109.161 38.0007 109.046 37.4736 108.815C36.9501 108.581 36.5548 108.263 36.2876 107.861C36.024 107.455 35.8923 106.988 35.8923 106.462H37.825C37.825 106.89 37.9348 107.206 38.1544 107.411C38.3777 107.612 38.7382 107.713 39.236 107.713C39.5545 107.713 39.8052 107.645 39.9883 107.51C40.1749 107.371 40.2683 107.177 40.2683 106.928Z" fill="#A7B9BE" fill-opacity="0.5"/>
<path d="M49.8604 109.051H47.9442L45.111 104.081V109.051H43.1838V101.063H45.111L47.9387 106.034V101.063H49.8604V109.051Z" fill="#A7B9BE" fill-opacity="0.5"/>
<path d="M57.8493 105.222C57.8493 106.001 57.7047 106.69 57.4155 107.29C57.1264 107.89 56.7146 108.353 56.1801 108.678C55.6494 109 55.0436 109.161 54.3627 109.161C53.6819 109.161 53.0779 109.006 52.5508 108.695C52.0237 108.38 51.6119 107.932 51.3154 107.351C51.0226 106.769 50.8689 106.101 50.8542 105.348V104.898C50.8542 104.115 50.997 103.426 51.2825 102.83C51.5717 102.23 51.9835 101.767 52.5179 101.441C53.056 101.116 53.6673 100.953 54.3518 100.953C55.0289 100.953 55.6329 101.114 56.1637 101.436C56.6944 101.758 57.1062 102.217 57.3991 102.813C57.6955 103.406 57.8456 104.086 57.8493 104.854V105.222ZM55.8891 104.887C55.8891 104.093 55.7555 103.492 55.4883 103.082C55.2248 102.669 54.8459 102.462 54.3518 102.462C53.3854 102.462 52.8748 103.186 52.8199 104.635L52.8144 105.222C52.8144 106.005 52.9443 106.606 53.2042 107.027C53.4641 107.447 53.8503 107.658 54.3627 107.658C54.8496 107.658 55.2248 107.451 55.4883 107.038C55.7519 106.624 55.8855 106.03 55.8891 105.255V104.887Z" fill="#A7B9BE" fill-opacity="0.5"/>
<path d="M65.0365 106.072L65.9535 101.063H67.8642L66.1676 109.051H64.169L63.0983 104.498L62.0496 109.051H60.0565L58.3544 101.063H60.2707L61.1876 106.072L62.2857 101.063H63.9219L65.0365 106.072Z" fill="#A7B9BE" fill-opacity="0.5"/>
<path d="M74.0851 105.491C73.181 105.231 72.5221 104.913 72.1085 104.536C71.6985 104.156 71.4935 103.687 71.4935 103.131C71.4935 102.502 71.7442 101.983 72.2457 101.573C72.7509 101.16 73.4061 100.953 74.2114 100.953C74.7604 100.953 75.2491 101.059 75.6774 101.271C76.1093 101.484 76.4424 101.776 76.6767 102.149C76.9146 102.522 77.0335 102.93 77.0335 103.373H75.9739C75.9739 102.89 75.8201 102.511 75.5126 102.237C75.2052 101.959 74.7714 101.82 74.2114 101.82C73.6916 101.82 73.2853 101.935 72.9924 102.166C72.7033 102.392 72.5587 102.709 72.5587 103.115C72.5587 103.44 72.696 103.717 72.9705 103.943C73.2487 104.166 73.719 104.371 74.3816 104.558C75.0478 104.744 75.5676 104.951 75.9409 105.178C76.3179 105.401 76.5961 105.663 76.7755 105.962C76.9585 106.262 77.05 106.615 77.05 107.021C77.05 107.669 76.7975 108.188 76.2923 108.58C75.7872 108.967 75.1118 109.161 74.2663 109.161C73.7172 109.161 73.2048 109.057 72.7289 108.848C72.253 108.636 71.8852 108.347 71.6253 107.982C71.369 107.616 71.2409 107.201 71.2409 106.736H72.3006C72.3006 107.219 72.4782 107.601 72.8332 107.883C73.1919 108.161 73.6696 108.3 74.2663 108.3C74.8227 108.3 75.2491 108.186 75.5456 107.96C75.8421 107.733 75.9903 107.424 75.9903 107.032C75.9903 106.641 75.8531 106.339 75.5785 106.127C75.304 105.911 74.8062 105.699 74.0851 105.491Z" fill="#A7B9BE" fill-opacity="0.5"/>
<path d="M83.9298 101.93H81.3602V109.051H80.3115V101.93H77.7473V101.063H83.9298V101.93Z" fill="#A7B9BE" fill-opacity="0.5"/>
<path d="M90.7437 101.063V106.495C90.74 107.248 90.5021 107.864 90.0299 108.344C89.5613 108.823 88.9244 109.092 88.1191 109.15L87.8391 109.161C86.9643 109.161 86.267 108.925 85.7472 108.453C85.2274 107.982 84.9639 107.332 84.9565 106.506V101.063H85.9997V106.473C85.9997 107.051 86.159 107.501 86.4774 107.822C86.7959 108.141 87.2498 108.3 87.8391 108.3C88.4358 108.3 88.8915 108.141 89.2063 107.822C89.5247 107.504 89.684 107.056 89.684 106.478V101.063H90.7437Z" fill="#A7B9BE" fill-opacity="0.5"/>
<path d="M92.4073 109.051V101.063H94.664C95.3594 101.063 95.9744 101.216 96.5088 101.524C97.0432 101.831 97.455 102.268 97.7442 102.835C98.037 103.402 98.1853 104.053 98.1889 104.788V105.299C98.1889 106.052 98.0425 106.712 97.7497 107.279C97.4605 107.846 97.0451 108.281 96.5033 108.585C95.9652 108.889 95.3375 109.044 94.62 109.051H92.4073ZM93.4615 101.93V108.19H94.5706C95.3832 108.19 96.0147 107.938 96.4649 107.433C96.9188 106.928 97.1457 106.209 97.1457 105.277V104.81C97.1457 103.903 96.9316 103.199 96.5033 102.698C96.0787 102.193 95.4747 101.937 94.6914 101.93H93.4615Z" fill="#A7B9BE" fill-opacity="0.5"/>
<path d="M100.918 109.051H99.8636V101.063H100.918V109.051Z" fill="#A7B9BE" fill-opacity="0.5"/>
<path d="M109 105.315C109 106.098 108.868 106.782 108.605 107.367C108.341 107.949 107.968 108.393 107.485 108.7C107.001 109.008 106.438 109.161 105.793 109.161C105.164 109.161 104.606 109.008 104.119 108.7C103.632 108.389 103.253 107.949 102.982 107.378C102.715 106.804 102.578 106.14 102.57 105.386V104.81C102.57 104.042 102.704 103.364 102.971 102.775C103.239 102.186 103.616 101.736 104.102 101.425C104.593 101.11 105.153 100.953 105.782 100.953C106.423 100.953 106.987 101.109 107.474 101.419C107.964 101.727 108.341 102.175 108.605 102.764C108.868 103.349 109 104.031 109 104.81V105.315ZM107.951 104.799C107.951 103.852 107.761 103.126 107.38 102.621C107 102.113 106.467 101.858 105.782 101.858C105.116 101.858 104.591 102.113 104.207 102.621C103.826 103.126 103.63 103.828 103.619 104.728V105.315C103.619 106.233 103.811 106.956 104.196 107.482C104.584 108.005 105.116 108.267 105.793 108.267C106.474 108.267 107.001 108.02 107.375 107.526C107.748 107.029 107.94 106.317 107.951 105.392V104.799Z" fill="#A7B9BE" fill-opacity="0.5"/>
<defs>
<clipPath id="clip0">
<rect width="84.8025" height="90.0762" fill="white" transform="translate(12.0214)"/>
</clipPath>
</defs>
</svg>

<svg width="109" height="110" viewBox="0 0 109 110" xmlns="http://www.w3.org/2000/svg" fill="none"><path d="M72.267 29.7v-.013l-.001.001-2.4-1.439 2.399-1.439-.008-16.711c-6.535-.711-12.124-1.064-17.665-1.062-5.553.001-11.192.358-17.818 1.065v5.568c2.461-.238 4.894-.429 7.31-.572 8.22-.489 16.176-.424 24.298.252v7.219c-8.049-.7-15.859-.781-23.876-.305-7.259.431-14.707 1.22-22.733 2.522v40.04c8.375 1.287 15.15 2.046 22.112 2.418 7.768.414 15.391.313 24.443-.18v7.186c-9.131.489-16.878.583-24.809.161-2.311-.123-4.635-.291-7.011-.505v5.783c6.738.907 12.457 1.357 18.073 1.356 5.583-.002 11.193-.453 17.734-1.349v-21.581l-42.837-21.953.051-9.496c2.433-.323 4.822-.604 7.177-.841l-.028 6.139 42.837 21.954v12.02c1.526-.203 3.105-.437 4.735-.698.955-.153 1.944-.321 2.968-.504v-39.875c-1.266-.203-2.611-.401-3.956-.585-1.269-.174-2.569-.336-3.826-.479l.005 9.941-7.173-4.037zm-15.31 58.487l-2.364 1.89-2.362-1.888c-6.153-.122-12.42-.728-19.842-1.824l-3.079-.454v-12.774c-3.766-.463-7.734-1.037-12.034-1.734l-2.922-.431v-24.787l-2.332-1.409 2.342-1.463.011.007-.021-24.464 3.218-.556c4.122-.708 8.109-1.315 12.003-1.816v-12.785l3.192-.375c7.261-.853 13.405-1.332 19.462-1.432l2.365-1.891 2.363 1.889c6.054.097 12.146.573 19.308 1.433l3.162.38.006 12.863c1.475.166 3.112.371 4.785.6 2.611.357 5.205.762 7.26 1.148l2.939.553v24.47l2.399 1.439-2.399 1.439v24.47l-2.925.563c-1.923.37-3.959.728-6.118 1.074-1.885.302-3.837.583-5.86.84v12.741l-3.065.462c-7.209 1.087-13.36 1.696-19.493 1.822zm-20.399-29.962l2.398 1.438-2.398 1.438v2.819c-2.331-.216-4.718-.48-7.199-.793v-8.972l7.199 4.069v.002z" fill="#A7B9BE" fill-opacity=".5" clip-path="url(#a)"/><path d="M6.995 105.222c0 .779-.145 1.468-.434 2.068-.289.6-.701 1.063-1.235 1.388-.531.322-1.137.483-1.817.483-.681 0-1.285-.155-1.812-.466-.527-.315-.939-.763-1.235-1.344-.293-.582-.447-1.25-.461-2.003v-.45c0-.783.143-1.472.428-2.068.289-.6.701-1.063 1.235-1.389.538-.325 1.149-.488 1.834-.488.677 0 1.281.161 1.812.483.531.322.943.781 1.235 1.377.296.593.447 1.273.45 2.041v.368zm-1.96-.335c0-.794-.134-1.395-.401-1.805-.264-.413-.642-.62-1.137-.62-.966 0-1.477.724-1.532 2.173l-.005.587c0 .783.13 1.384.39 1.805.26.42.646.631 1.159.631.487 0 .862-.207 1.126-.62.264-.414.397-1.008.401-1.783v-.368zM13.793 102.55h-2.399v6.501h-1.927v-6.501h-2.355v-1.487h6.682v1.487zM21.293 109.051h-1.916v-3.335h-2.839v3.335h-1.927v-7.988h1.927v3.171h2.839v-3.171h1.916v7.988zM27.475 105.666h-3.031v1.904h3.58v1.481h-5.507v-7.988h5.518v1.487h-3.591v1.684h3.031v1.432zM31.78 106.231h-1.043v2.82h-1.927v-7.988h3.146c.948 0 1.689.21 2.224.631.534.42.802 1.015.802 1.783 0 .556-.114 1.017-.34 1.383-.223.365-.575.662-1.054.888l1.669 3.221v.082h-2.064l-1.411-2.82zm-1.043-1.487h1.219c.366 0 .64-.095.824-.285.187-.194.28-.463.28-.806 0-.344-.093-.613-.28-.807-.187-.197-.461-.296-.824-.296h-1.219v2.194zM40.268 106.928c0-.282-.101-.501-.302-.658-.198-.158-.547-.32-1.049-.489-.502-.168-.911-.331-1.23-.488-1.036-.508-1.554-1.207-1.554-2.096 0-.442.128-.832.384-1.168.26-.341.626-.604 1.098-.791.472-.19 1.003-.285 1.592-.285.575 0 1.089.103 1.543.307.458.205.813.498 1.065.878.253.377.379.809.379 1.295h-1.922c0-.325-.101-.578-.302-.757-.198-.179-.467-.269-.807-.269-.344 0-.617.077-.818.231-.198.149-.297.342-.297.576 0 .204.11.391.329.559.22.165.606.337 1.158.516.553.176 1.007.366 1.362.571.864.497 1.296 1.183 1.296 2.057 0 .699-.264 1.247-.791 1.646-.527.399-1.25.598-2.169.598-.648 0-1.235-.115-1.762-.346-.523-.234-.919-.552-1.186-.954-.264-.406-.395-.873-.395-1.399h1.933c0 .428.11.744.329.949.223.201.584.302 1.082.302.319 0 .569-.068.752-.203.187-.139.28-.333.28-.582zM49.86 109.051h-1.916l-2.833-4.97v4.97h-1.927v-7.988h1.927l2.828 4.971v-4.971h1.922v7.988zM57.849 105.222c0 .779-.145 1.468-.434 2.068-.289.6-.701 1.063-1.235 1.388-.531.322-1.137.483-1.817.483-.681 0-1.285-.155-1.812-.466-.527-.315-.939-.763-1.235-1.344-.293-.582-.447-1.25-.461-2.003v-.45c0-.783.143-1.472.428-2.068.289-.6.701-1.063 1.235-1.389.538-.325 1.149-.488 1.834-.488.677 0 1.281.161 1.812.483.531.322.943.781 1.235 1.377.296.593.447 1.273.45 2.041v.368zm-1.96-.335c0-.794-.134-1.395-.401-1.805-.264-.413-.642-.62-1.137-.62-.966 0-1.477.724-1.532 2.173l-.005.587c0 .783.13 1.384.39 1.805.26.42.646.631 1.158.631.487 0 .862-.207 1.126-.62.264-.414.397-1.008.401-1.783v-.368zM65.037 106.072l.917-5.009h1.911l-1.697 7.988h-1.999l-1.071-4.553-1.049 4.553h-1.993l-1.702-7.988h1.916l.917 5.009 1.098-5.009h1.636l1.115 5.009zM74.085 105.491c-.904-.26-1.563-.578-1.977-.955-.41-.38-.615-.849-.615-1.405 0-.629.251-1.148.752-1.558.505-.413 1.16-.62 1.966-.62.549 0 1.038.106 1.466.318.432.213.765.505.999.878.238.373.357.781.357 1.224h-1.06c0-.483-.154-.862-.461-1.136-.307-.278-.741-.417-1.301-.417-.52 0-.926.115-1.219.346-.289.226-.434.543-.434.949 0 .325.137.602.412.828.278.223.748.428 1.411.615.666.186 1.186.393 1.559.62.377.223.655.485.835.784.183.3.275.653.275 1.059 0 .648-.252 1.167-.758 1.559-.505.387-1.18.581-2.026.581-.549 0-1.061-.104-1.537-.313-.476-.212-.844-.501-1.104-.866-.256-.366-.384-.781-.384-1.246h1.06c0 .483.178.865.533 1.147.359.278.836.417 1.433.417.556 0 .983-.114 1.279-.34.297-.227.445-.536.445-.928 0-.391-.137-.693-.412-.905-.275-.216-.772-.428-1.493-.636zM83.93 101.93h-2.57v7.121h-1.049v-7.121h-2.564v-.867h6.183v.867zM90.744 101.063v5.432c-.004.753-.242 1.369-.714 1.849-.469.479-1.105.748-1.911.806l-.28.011c-.875 0-1.572-.236-2.092-.708-.52-.471-.783-1.121-.791-1.947v-5.443h1.043v5.41c0 .578.159 1.028.478 1.349.319.319.772.478 1.362.478.597 0 1.052-.159 1.367-.478.318-.318.478-.766.478-1.344v-5.415h1.06zM92.407 109.051v-7.988h2.257c.695 0 1.31.153 1.845.461.534.307.946.744 1.235 1.311.293.567.441 1.218.445 1.953v.511c0 .753-.146 1.413-.439 1.98-.289.567-.705 1.002-1.246 1.306-.538.304-1.166.459-1.883.466h-2.213zm1.054-7.121v6.26h1.109c.813 0 1.444-.252 1.894-.757.454-.505.681-1.224.681-2.156v-.467c0-.907-.214-1.611-.642-2.112-.425-.505-1.029-.761-1.812-.768h-1.23zM100.918 109.051h-1.054v-7.988h1.054v7.988zM109 105.315c0 .783-.132 1.467-.395 2.052-.264.582-.637 1.026-1.12 1.333-.484.308-1.047.461-1.692.461-.629 0-1.187-.153-1.674-.461-.487-.311-.866-.751-1.137-1.322-.267-.574-.404-1.238-.412-1.992v-.576c0-.768.134-1.446.401-2.035.268-.589.645-1.039 1.131-1.35.491-.315 1.051-.472 1.68-.472.641 0 1.205.156 1.692.466.49.308.867.756 1.131 1.345.263.585.395 1.267.395 2.046v.505zm-1.049-.516c0-.947-.19-1.673-.571-2.178-.38-.508-.913-.763-1.598-.763-.666 0-1.191.255-1.575.763-.381.505-.577 1.207-.588 2.107v.587c0 .918.192 1.641.577 2.167.388.523.92.785 1.597.785.681 0 1.208-.247 1.582-.741.373-.497.565-1.209.576-2.134v-.593z" fill="#A7B9BE" fill-opacity=".5"/><defs><clipPath id="a"><path fill="#fff" d="M12.021 0h84.802v90.076h-84.802z"/></clipPath></defs></svg>
